svgs/opentracks.svg

<svg viewBox="0 0 192 192" xml:space="preserve" style="fill-rule:evenodd;clip-rule:evenodd;stroke-linejoin:round;stroke-miterlimit:2" xmlns="http://www.w3.org/2000/svg"><path d="M1290.45 101.974a6.588 6.588 0 0 0 3.05 12.118l56.62 4.32c4.71.631 10.1 2.726 11.73 6.975 0 .013.01.026.01.039l21.59 55.476a6.575 6.575 0 0 0 6.42 4.193 6.593 6.593 0 0 0 6.04-4.74l47.33-162.513a6.594 6.594 0 0 0-2.37-7.117 6.589 6.589 0 0 0-7.5-.273l-142.92 91.522Zm23.69.478 111.54-71.433-36.99 127.017-14.55-37.374c-3.25-8.484-13.14-14.148-22.51-15.341a6.148 6.148 0 0 0-.33-.034l-37.16-2.835Z" style="fill-rule:evenodd;clip-rule:evenodd;stroke-linejoin:round;stroke-miterlimit:2" transform="matrix(.9107 0 0 .9107 -1147.52 7.429)"/></svg>

<?xml version="1.0" encoding="UTF-8" standalone="no"?>
<svg
   width="100%"
   height="100%"
   viewBox="0 0 192 192"
   version="1.1"
   xml:space="preserve"
   style="fill-rule:evenodd;clip-rule:evenodd;stroke-linejoin:round;stroke-miterlimit:2;"
   id="svg10"
   sodipodi:docname="opentracks.svg"
   inkscape:version="1.2.1 (9c6d41e410, 2022-07-14)"
   xmlns:inkscape="http://www.inkscape.org/namespaces/inkscape"
   xmlns:sodipodi="http://sodipodi.sourceforge.net/DTD/sodipodi-0.dtd"
   xmlns="http://www.w3.org/2000/svg"
   xmlns:svg="http://www.w3.org/2000/svg"><defs
   id="defs14" /><sodipodi:namedview
   id="namedview12"
   pagecolor="#ffffff"
   bordercolor="#000000"
   borderopacity="0.25"
   inkscape:showpageshadow="2"
   inkscape:pageopacity="0.0"
   inkscape:pagecheckerboard="0"
   inkscape:deskcolor="#d1d1d1"
   showgrid="false"
   inkscape:zoom="5.3489583"
   inkscape:cx="96"
   inkscape:cy="95.906524"
   inkscape:window-width="1274"
   inkscape:window-height="1303"
   inkscape:window-x="1282"
   inkscape:window-y="36"
   inkscape:window-maximized="0"
   inkscape:current-layer="svg10" />
    <path
   d="M1290.45,101.974C1288.06,103.502 1286.92,106.384 1287.61,109.132C1288.3,111.879 1290.67,113.876 1293.5,114.092L1350.12,118.412C1354.83,119.043 1360.22,121.138 1361.85,125.387C1361.85,125.4 1361.86,125.413 1361.86,125.426L1383.45,180.902C1384.47,183.532 1387.05,185.218 1389.87,185.095C1392.69,184.971 1395.12,183.065 1395.91,180.355L1443.24,17.842C1444.01,15.206 1443.06,12.37 1440.87,10.725C1438.67,9.08 1435.68,8.971 1433.37,10.452L1290.45,101.974ZM1314.14,102.452L1425.68,31.019C1425.68,31.019 1388.69,158.036 1388.69,158.036C1388.69,158.036 1374.14,120.662 1374.14,120.662C1370.89,112.178 1361,106.514 1351.63,105.321C1351.52,105.307 1351.41,105.295 1351.3,105.287L1314.14,102.452Z"
   id="path4"
   style="fill-rule:evenodd;clip-rule:evenodd;stroke-linejoin:round;stroke-miterlimit:2"
   transform="matrix(0.910698,0,0,0.910698,-1147.52,7.42883)"
   inkscape:label="Opentracks-Form" />
</svg>
